X:1
T:La vierge - Légende sacrée - N°13 Strophes
T:La vierge - Légende sacrée - N°13 Strophes
T:J. Massenet
T:A. Grandmougin
C:J. Massenet
%%score 1 { 2 | 3 }
L:1/8
Q:1/4=100
M:3/4
K:C
V:1 treble 
V:2 treble nm="Piano"
V:3 bass 
V:1
 z6 | z6 | z6 | z6 | z6 | z6 | z6 |"^La vierge (extasiée)" z6 | z6!pp! | _B4 BB | _B2 z B B>_d | %11
w: |||||||||Rêve in- fi-|ni! di- vine ex-|
 _d6- | d2 _A2 z2 | z6 | z4 z3/2 B/ | B3 B BB | _e6 | z!<(! _B cc d>d!<)! |!>(! f2 _e2!>)! z2 | %19
w: ta-|* se!||Mes|yeux sont é- blou-|is!|L'im- men- si- té m'op-|pres- se!|
 z2!pp! _B2"^rall." B>B ||[Q:1/4=92]"^Andante cantabile con moto" _B6- | B2 z4 | z6 | z6!p! | %24
w: Rêve in- fi-|ni!||||
 _B2 BB B>B | _B4 z B | c3 c c>c |!<(! d4 d!<)! z | f>d _B4 | _e>c _A3 A | G_B!>(! B3 _A!>)! | %31
w: Ah! d'un charme in- con-|nu je|suis tout en- i-|vré- e,|Des es- prits|bien- heu- reux j'en-|tends dé- jà les|
 G6- | G2 z4 | c>c c2 d_e | _A4 A z | c>c c2 d_e |!<(! c4 c!<)! z | f>d _B4 | _e>c _A3 A | %39
w: voix:||Des li- ens de la|vi- e|à ja- mais dé- li-|vré- e,|J'ai con- nu|la dou- leur pour|
 Gd d3 c | _B6- | B2 z4!mf! | _dc _B2 _A>G | _B6 |!<(! f_e _d2 c>_B!<)! | _d2 c2 z c!f! | %46
w: la der- niè- re|fois!||O ver- ti- ge sa-|cré|dou- lou- reuse al- lé-|gres- se! Mes|
 _a3 _e c_A | FG _A_B c_d | (f2 G4) | _A2 z4 | z4 z _A | =A2 _B>A c2 |!<(! =A>c _e3 z!<)! | %53
w: yeux sont é- blou-|is, l'im- men- si- té m'op-|pres- *|se!|Les|por- tes du ciel|vont s'ou- vrir!|
!f! (f4 _e>_d | _B4) z!p! B | c4 G2 | =A6- | A2 =A2 z2 |"^Animez peu à peu" _B2 _e2 d2 | %59
w: Rêve in- fi-|ni! Di-|vine ex-|ta-|* se!|L'é- ther scin-|
!<(! c2 d2 _e2!<)! | (d2 g2 f2) | _e2 z2 e2 |!ff! (f2 _b2 _a2 | g2 f) z _e2 | dc _B_A c2- | %65
w: tille et s'em-|bra- * *|se... s'em-|bra- * *|* se A|la clar- té du jour|
 c3 _B _AG | _B6- |"^rall."!<(! B4- B_B!<)! |!f!"^1er Tempo" _e6- | e4 z2 | z6 | z6 | z6 | z6 | %74
w: * qui ne doit|pas|* * fi-|nir!||||||
 z6 | z6 | z6 | z6 |!mf!"^plus accentué" _B>B B2 B>B | _B4- B z | c>c c2 c>c |!<(! d4 d z!<)! | %82
w: ||||Pa- ra- dis, je te|vois! *|O tor- rents de lu-|miè- re,|
 f>d _B4 | _e>c _A2 z A | G2 _B2!>(! B>_A!>)! | G6- | G2 z3 z/ G/ | c2 c2 d>_e | _A4 A z | %89
w: D'har- mo- nie|et d'a- mour, De|paix et de beau-|té!...|* Mon|â- me, trop é-|mu- e,|
 c>c c2 d>_e |!<(! c4 c!<)! z | f>d _B4 | _e>c _A2 A2 | G>d d2 d>c | _B6- | B2 z4 | %96
w: A be- soin de pri-|è- re|A l'as- pect|re- dou- ta- ble|du cé- les- te sé-|jour!...||
!mf! _dc _B2 _A>G | _B6 |!<(! f_e _d2 c>_B!<)! | _d2 c2 z c |!f! _a3 _e c_A | FG _A_B c_d | %102
w: O ver- ti- ge sa-|cré,|dou- lou- reuse al- lé-|gres- se! Mes|yeux sont é- blou-|is, l'im- men- si- té m'op-|
 (f2 G4 | _A2) z4 | z4 z _A | =A2 _B>A c2 |!<(! =A>c _e3!<)! z |!f! (f4 _e>_d | _B4) z!p! B | %109
w: pres- *|se!...|Les|por- tes du ciel|vont s'ou- vrir!...|Rêve in- fi-|ni!... Di-|
 c4 G2 | =A6- | A2 =A2 z2 |"^Animez peu à peu" _B2 _e2 d2 |!<(! c2 d2 _e2!<)! | (d2 g2 f2) | %115
w: vine ex-|ta-|* se!...|L'é- ther scin-|tille et s'em-|bra- * *|
 _e2 z2 e2 |!ff! (f2 _b2 _a2 | g2 f) z _e2 | dc _B_A c2- | c3 _B _AG | _B6- | %121
w: se, s'em-|bra- * *|* se A|la clar- té du jour|* qui ne doit|pas|
"^rall."!<(! B4- B!<)!_B |!ff!"^1er Tempo" g6- | g4 z2 | z6 | z6 | z6 | z6 | z6 | z6 |] %130
w: * * fi-|nir!||||||||
V:2
!mf! [G,CE]2 [G,G]2 [Cc]2 | [B,DFB]2 [A,A]2 [F,F]2 | [G,CE]2 [G,G]2 [Cc]2 | %3
 [B,DFB]2 [A,A][G,G] [A,A][F,F] |!<(! [G,CE]2 [G,G][Gg] [Ff]>[Ee]!<)! | %5
!f! [EAe][Dd] [Cc][B,B] [Cc]>[A,A] |!ff! [A,CA]2 [G,G]E CG, | [F,A,]B, A,F [F,B,E]>D | %8
!>(! [E,_B,D]2 ^C4-!>)! | C z z4 | z6 | z6 |!pp! [_df]2 _a2 _d'2 | [cc']2 [_g_b]2 g2 | [Bf]6- | %15
 [Bf]6 |!mf! [G_B_eg]2 [B_b]2 [e_e']2 | [df_ad']2!<(! [cc']2 [_Aa]2!<)! | %18
!>(! [_Adf_a]2 [G_eg]2!>)!"^c""^dim." [_E=Af]2 | [_EG_e]2 [D_Ad]"^suivez." z z2 || %20
!mf! z3 G/_B/ _e/g/_b/_e'/ | z3 G/_B/ _e/g/_b/_e'/ | z3 G/_B/ _e/g/_b/_e'/ | %23
 z3 G/_B/ _e/g/_b/_e'/ | z3 G/_B/ _e/g/_b/_e'/ | z2 z/ F/_B/_d/ f/_b/_d'/f'/ | %26
 z2 z/ G/c/=e/ g/c'/=e'/g'/ | z2 z/ F/_A/d/ f/_a/d'/f'/ | z3 F/_A/ d/f/_a/d'/ | %29
 z2 z/ _E/_A/c/"^dim." _e/_a/c'/_e'/ | z2!>(! z/ G/_B/d/ f/_a/d'/f'/!>)! | z4 [_e_e']2 | %32
!mf!"^espressivo" [dd']!>(![cc'] [_B_b]g!>)! d[_E_e] | z2 C/_E/G/c/ _e/g/c'/_e'/ | %34
 z2 C/_E/_A/c/ _e/_a/c'/_e'/ | z2 C/_E/G/c/ _e/g/c'/_e'/ | z2!<(! C/_E/G/c/ _e/g/c'/_e'/!<)! | %37
 z3 F/_A/ d/f/_a/d'/ | z2 z/ _E/_A/c/"^dim." _e/_a/c'/_e'/ | z2 z/ G/_B/d/ ^f/=a/d'/^f'/ | %40
 z4!f! [_b_b']2 |!>(! [=a=a'][gg']!>)! [dd'][_B_b] [=Aa][Gg] | [_B_b]2 z3/2 F/ B/_d/f/b/ | %43
"^più F" [_d_d']!>(![cc'] [_B_b]2 [_A_a]!>)![Gg] | [ff']2 z F/_B/ _d/f/_b/_d'/ | %45
!f!!>(! [_b_b'][_a_a'] [gg']2!>)! [ff'][_e_e'] |!<(! [_e_e']6!<)! | [ff']4 [_e_e'][_d_d'] | %48
!>(! [_d_d']2 [cc']2 [_B_b]2!>)! | [_A_a]3!<(! c' [_e_e'][a_a'] | %50
 [gg'][ff']!<)!!>(! [_e_e']c' g[_A_a]!>)! | [=A=a]2 C/_E/=A/c/ _e/=a/c'/_e'/ | %52
!<(! z2 z/ C/_E/_G/ =A/c/_e/=a/!<)! |!f! z2 z/ _D/F/_A/ =B/_d/f/_a/ | [_d_d']4 [_B_b][_G_g] | %55
!pp! [Ff]2 F/=A/c/f/ G/c/=e/g/ |!<(! [=A=a][_B_b] [=B=b][cc'] [dd'][_e_e']- | %57
 [ee']!<)![ff'] [_g_g'][=g=g'] [_a_a'][=a=a'] |!f! [_b_b']2 z G/_B/ _e/g/b/_e'/ | %59
 z2 z/!<(! _E/G/c/ _e/g/c'/_e'/!<)! | [dd']2 [gg']2 [ff']2 | [_e_e']2 [ff']2 [gg']2 | %62
!ff! !>![ff']2 !>![_bd'f'_b']2 !>![_a_a']2 | !>![gc'_e'g']2 !>![ff']2 !>![_ee']2 | %64
!>(! [dd'][cc'] [_B_b][_A_a]!>)! [cc']2- | [cc']3 [_B_b] [_A_a][Gg] | %66
 [_B_b]2 z/ _E/_G/B/ _e/_g/b/B/ | z2!<(! _B,/D/_A/"^suivez."_B/ d/_a/_b/B/!<)! | z6 | %69
 z4!ff! [_eg_b_e']2 | [dd'][cc'] [_B_b]g d[_E_e] | [^F^f]2 [=G=g]2 [g_b_e'g']2 | %72
 [ff']!<(![_e_e'] [_d_d'][_B_b] [=F=f][Gg] | [=A=a]2 [_B_b]2!<)!!fff! [b_e'g'_b']2 | %74
 [_a_a'][gg'] [ff'][_e_e'] [Gg][_Aa] | [cc']2"^dim." [_B_b]2 [Gg]2 |!p! [_e_e']6- | [ee']4 z2 | %78
"^q"!pp! [_eg_b]6 |"^q" [_df_b]6 |"^q" [=egc']6 |"^q"!<(! [f_ad']6!<)! |"^q" [_ad'f']6 | %83
"^q"!>(! [_ac'_e']6!>)! |"^q" [dg_b]4"^q" [d_ab]2 |"^q" [_eg_b]4"^q""^sf" [egb_e']2 | %86
!>(! [dd'][cc'] [_B_b]g!>)! d[_E_e] |"^q" [c_eg]6 |"^q" [c_e_a]6 |"^q" [c_eg]6 | %90
"^q"!<(! [_egc']6!<)! |"^q" [f_ad']6 |"^q" [_e_ac'_e']6 |"^q""^dim." [g_bd']4"^q" [_gc'd']2 | %94
"^q"!<(! [g_bd']4!<)! [b_b']2 |!>(! [=a=a'][gg'] [ff']!>)![_B_b] [=Aa][Gg] | %96
 [_B_b]2 z3/2 F/ B/_d/f/b/ |"^più F" [_d_d'][cc']!>(! [_B_b]2!>)! [_A_a][Gg] | %98
 [ff']2 z F/_B/ _d/f/_b/_d'/ |!f! [_b_b']!>(![_a_a'] [gg']2!>)! [ff'][=e=e'] |!<(! [_e_e']6!<)! | %101
 [ff']4 [_e_e'][_d_d'] |!>(! [_d_d']2 [cc']2 [_B_b]2!>)! | [_A_a]2- [Aa]!<(!c' [_e_e'][a_a'] | %104
 [gg'][ff']!<)!!>(! [_e_e']c' g[_A_a]!>)! | [=A=a]2 C/_E/A/c/ _e/a/c'/_e'/ | %106
!<(! z2 z/ C/_E/_G/ =A/c/_e/=a/!<)! |!f! z2 z/ _D/F/_A/ =B/_d/f/_a/ | %108
!>(! [_d_d']4 [_B_b]!>)![_G_g] |!pp! [Ff]2 F/=A/c/f/ G/c/=e/g/ | %110
!<(! [=A=a][_B_b] [=B=b][cc'] [dd'][_e_e']- | [ee']!<)![ff'] [_g_g'][=g=g'] [_a_a'][=a=a'] | %112
!f! [_b_b']2 z G/_B/ _e/g/b/_e'/ | z2 z/!<(! _E/G/_B/ _e/g/c'/_e'/!<)! | [dd']2 [gg']2 [ff']2 | %115
 [_e_e']2 [ff']2 [gg']2 |!ff! !>![ff']2 !>![_bd'f'_b']2 !>![_a_a']2 | %117
 !>![gc'_e'g']2 !>![ff']2 !>![_ee']2 |!>(! [dd'][cc'] [_B_b][_A_a]!>)! [cc']2- | %119
 [cc']3 [_B_b] [_A_a][Gg] | [_B_b]2 z/ _E/_G/B/ _e/_g/b/B/ | %121
 z2!<(! _B,/D/_A/"^suivez."_B/ d/_a/_b/B/!<)! | z6 | z4!ff! [_eg_b_e']2 | %124
 [dd'][cc'] [_B_b]g d[_E_e] | [_G_g]2 [=G=g]2 [_B_b]2 | [_e_e']2 [gg']2"^dim."!>(! [_b_b']2-!>)! | %127
 [bb']2[K:treble+8]"^c"!p! [_eg_b_e']4 |"^c" [_eg_b_e']6 |"^c"!pp! [_eg_b_e']4 z2 |] %130
V:3
"^c"!mf! [C,,G,,E,]6 | [G,,D,F,]6 |"^c" [C,,G,,E,]6 | [G,,D,F,]6 |"^c" [C,,G,,E,]6 | %5
"^c"!f! [F,,C,D,A,]6 |"^c"!ff! [E,,C,]3 E, C,G,, | [F,,A,,]B,, A,,F,"^c" [G,,E,]>D, | %8
 [G,,D,]2 ^C,4- | C, z z4 | z6 | z6 |!pp! [_A,_DF]6 | [_A,_E_G]6 | [_A,DF]6- | [A,DF]6 | %16
"^c"!mf! [_B,,_E,G,_B,]6 |"^c" [_B,,F,_A,D]6 |"^c" [C,F,D]2 [G,_E]2"^c" [C,F,]2 | %19
 [_B,,G,_B,]2 [B,,_A,B,] z z2 ||!mf! _E,,/_B,,/_E,/G,/ _B,/_E/ z z2 | %21
 _E,,/_B,,/_E,/G,/ _B,/_E/ z z2 | _E,,/_B,,/_E,/G,/ _B,/_E/ z z2 | _E,,/_B,,/_E,/G,/ _B,/_E/ z z2 | %24
 _E,,/_B,,/_E,/G,/ _B,/_E/ z z2 | _D,,/_D,/F,/_B,/ _D/ z3/2 z2 | C,,/=E,/G,/C/ =E/ z3/2 z2 | %27
 =B,,,/=B,,/F,/_A,/ D/ z3/2 z2 | _B,,,/_B,,/D,/F,/ _A,/D/ z z2 | C,,/C,/_E,/_A,/ C/ z3/2 z2 | %30
 D,,/D,/G,/_B,/ D/ z3/2"^c" [B,DF_A]2 | _E,,/_B,,/_E,/G,/ _B,/_E/G/E/ B,/G,/E,/B,,/ | %32
!mf! _E,,/_B,,/_E,/G,/ _B,/_E/G/E/ B,/G,/E,/B,,/ | _E,,/C,/_E,/G,/ C/ z3/2 z2 | %34
 F,,/C,/_E,/_A,/ z4 | G,,/C,/_E,/G,/ z4 | =A,,/C,/_E,/G,/ z4 | _B,,,/_B,,/D,/F,/ _A,/D/ z z2 | %38
 C,,/C,/_E,/_A,/ C/ z3/2 z2 | D,,/D,/G,/_B,/ D/ z3/2"^c" [D,^F,=A,C]2 | %40
 G,,/_B,,/D,/G,/ _B,/D/G/D/ B,/G,/D,/B,,/ | G,,/_B,,/D,/G,/ _B,/D/G/D/ B,/G,/D,/B,,/ | %42
 G,,/_B,,/_D,/F,/ G,/_B,/_D z2 | C,,/G,,/C,/=E,/ G,/C/G,/E,/ C,/G,,/C,, | %44
 G,,/_B,,/_D,/F,/ _B,/_D/ z z2 | C,,/=E,,/G,,/C,/ =E,/G,/C/G,/ E,/C,/G,,/E,,/ | %46
 C,,/_E,,/_A,,/C,/ _E,/_A,/C/A,/ E,/C,/A,,/E,,/ | _B,,,/_B,,/_D,/F,/ _A,/_D/F/D/ A,/F,/D,/B,,/ | %48
 _E,,/_D,/_E,/G,/ _D/_E/G/E/ D/G,/E,/D,/ | _A,,/_E,/_A,/C/ _E/_A/c/A/ E/C/A,/E,/ | %50
 _A,,/_E,/_A,/C/ _E/_A/c/A/ E/C/A,/E,/ | _G,,/C,/_E,/=A,/ z4 | _E,,/=A,,/C,/_G,/ =A,/ z3/2 z2 | %53
!f! _D,,/_D,/F,/_A,/ =B,/ z3/2 z2 |!>(! _D,,/_G,,/_B,,/_D,/ _G,/_B,/_D/B,/ G,/!>)!D,/B,,/G,,/ | %55
!pp! C,,/F,,/=A,,/C,/ F,/ z3/2"^c" [C,=E,G,C]2 | %56
 C,,/_E,,/_G,,/=A,,/ _E,/_G,/=A,/G,/ E,/A,,/G,,/E,,/ | %57
 =B,,,/_E,,/_G,,/=A,,/ _E,/_G,/=A,/G,/ E,/A,,/G,,/E,,/ |!f! _B,,,/_B,,/_E,/G,/ _B,/_E/ z z2 | %59
 _B,,,/_B,,/_E,/G,/ C/ z3/2 z2 | _B,,,/_B,,/D,/G,/ _B,/D/G/D/ B,/G,/D,/B,,/ | %61
 _B,,,/C,/_E,/G,/ C/_E/G/E/ C/G,/=E,/C,/ |!ff! [_B,,,_B,,]2 !>![_B,DF_B]2 !>![_A,_A]2 | %63
 [C,,C,]2 !>![F,F]2 !>![_E,_E]2 | _A,,/C,/_E,/F,/ _A,/C/_E/F/ E/C/A,/F,/ | %65
 G,,/_B,,/_E,/G,/ _B,/_E/G/E/ B,/G,/E,/B,,/ | _G,,/_B,,/_E,/_G,/ _B,/ z3/2 z2 | %67
 F,,/_B,,/D,/_A,/ z4 |!f! [_E,,,_E,,]/_B,,/_E,/G,/ _B,/_E/G/E/ B,/G,/E,/B,,/ | %69
 _E,,/_B,,/_E,/G,/ _B,/_E/G/E/!ff! B,/G,/E,/B,,/ | _E,,/_B,,/_E,/G,/ _B,/_E/G/E/ B,/G,/E,/B,,/ | %71
 _E,,/_B,,/_E,/G,/ _B,/_E/G/E/ B,/G,/E,/B,,/ | _E,,/_B,,/_E,/G,/ _B,/_E/G/E/ B,/G,/E,/B,,/ | %73
 _E,,/_B,,/_E,/G,/ _B,/_E/G/E/!fff! B,/G,/E,/B,,/ | _E,,/_B,,/_E,/G,/ _B,/_E/G/E/ B,/G,/E,/B,,/ | %75
 _E,,/_B,,/_E,/G,/!>(! _B,/_E/G/E/ B,/G,/E,/B,,/!>)! | %76
!p! _E,,/_B,,/_E,/G,/ _B,/_E/G/E/ B,/G,/E,/B,,/ | _E,,/_B,,/_E,/G,/ _B,/_E/G/E/ B,/G,/E,/B,,/ | %78
!pp! _E,,/_B,,/_E,/G,/ _B,/_E/G/E/ B,/G,/E,/B,,/ | _D,,/_B,,/_D,/F,/ _B,/_D/F/D/ B,/F,/D,/B,,/ | %80
 C,,/=E,,/G,,/C,/ =E,/G,/C/G,/ E,/C,/G,,/E,,/ | =B,,,/F,,/_A,,/D,/ =B,,/F,/_A,/D/ F/D/A,/F,/ | %82
 _B,,/F,/_A,/D/ F/D/A,/F,/ B,,/F,/A,/D/ | C,/_E,/_A,/C/ _E/C/A,/E,/ C,/E,/A,/C/ | %84
 D,/G,/_B,/D/"^dim." D/B,/G,/D,/ _B,,/F,/_A,/D/ | %85
 _E,,/!<(!_B,,/_E,/G,/ _B,/_E/G/E/!<)! B,/G,/E,/B,,/ | %86
 _E,,/_B,,/_E,/G,/ _B,/_E/G/E/ B,/G,/E,/B,,/ | _E,,/C,/_E,/G,/ C/G,/E,/C,/ E,,/C,/E,/G,/ | %88
 F,,/C,/_E,/_A,/ A,/E,/C,/F,,/ F,,/C,/E,/A,/ | G,,/C,/_E,/G,/ C/G,/E,/C,/ G,,/C,/E,/G,/ | %90
 =A,,/C,/_E,/G,/ C/G,/E,/C,/ A,,/C,/E,/G,/ | _B,,/F,/_A,/D/ F/D/A,/F,/ B,,/F,/A,/D/ | %92
 C,/_E,/_A,/C/!>(! _E/C/A,/E,/ C,/E,/A,/C/!>)! | D,/G,/_B,/D/ D/B,/G,/D,/ D,/_G,/=A,/D/ | %94
 G,,/_B,,/D,/G,/ _B,/D/G/D/ B,/G,/D,/B,,/ | G,,/_B,,/D,/G,/ _B,/D/G/D/ B,/G,/D,/B,,/ | %96
 G,,/_B,,/_D,/=E,/ G,/_B,/_D/F/ z2 | C,,/G,,/C,/=E,/ G,/C/G,/E,/ C,/G,,/C,, | %98
 G,,/_B,,/_D,/F,/ _B,/_D/ z z2 | C,,/=E,,/G,,/C,/ =E,/G,/C/G,/ E,/C,/G,,/E,,/ | %100
 C,,/_E,,/_A,,/C,/ _E,/_A,/C/A,/ E,/C,/A,,/E,,/ | _B,,,/_B,,/_D,/F,/ _A,/_D/F/D/ A,/F,/D,/B,,/ | %102
 _E,,/_D,/_E,/G,/ _D/_E/G/E/ D/G,/E,/D,/ | _A,,/_E,/_A,/C/ _E/_A/c/A/ E/C/A,/E,/ | %104
 _A,,/_E,/_A,/C/ _E/_A/c/A/ E/C/A,/E,/ | _G,,/C,/_E,/=A,/ z4 | _E,,/=A,,/C,/_G,/ =A,/ z3/2 z2 | %107
!f! _D,,/_D,/F,/_A,/ =B,/ z3/2 z2 | _D,,/_G,,/_B,,/_D,/ _G,/_B,/_D/B,/ G,/D,/B,,/G,,/ | %109
!pp! C,,/F,,/=A,,/C,/ F,/ z3/2"^c" [C,=E,G,C]2 | %110
 C,,/_E,,/_G,,/=A,,/ _E,/_G,/=A,/G,/ E,/A,,/G,,/E,,/ | %111
 =B,,,/_E,,/_G,,/=A,,/ _E,/_G,/=A,/G,/ E,/A,,/G,,/E,,/ |!f! _B,,,/_B,,/_E,/G,/ _B,/_E/ z z2 | %113
 _B,,,/_B,,/_E,/G,/ C/ z3/2 z2 | _B,,,/_B,,/D,/G,/ _B,/D/G/D/ B,/G,/D,/B,,/ | %115
 _B,,,/_B,,/=E,/G,/ C/_E/G/E/ C/G,/_E,/C,/ |!ff! [_B,,,_B,,]2 !>![_B,DF_B]2 !>![_A,_A]2 | %117
 [C,,C,]2 !>![F,F]2 !>![_E,_E]2 | _A,,/C,/_E,/F,/ _A,/C/_E/F/ E/C/A,/F,/ | %119
 G,,/_B,,/_E,/G,/ _B,/_E/G/E/ B,/G,/E,/B,,/ | _G,,/_B,,/_E,/_G,/ _B,/ z3/2 z2 | %121
 F,,/_B,,/D,/_A,/ z4 |!ff! [_E,,,_E,,]/_B,,/_E,/G,/ _B,/_E/G/E/ B,/G,/E,/B,,/ | %123
 _E,,/_B,,/_E,/G,/ _B,/_E/G/E/ B,/G,/E,/B,,/ | _E,,/_B,,/_E,/G,/ _B,/_E/G/E/ B,/G,/E,/B,,/ | %125
 _E,,/_B,,/_E,/G,/ _B,/_E/G/E/ B,/G,/E,/B,,/ | (3_E,,_B,,_E, (3G,_B,_E[K:treble] (3G_B_e | %127
 g2"^c"!p! [_B_eg_b]4 |"^dim.""^c" [_B_eg_b]6 |"^c"!pp! [_B_eg_b]4 z2 |] %130

